!!!!SEGMENT: pl-cz--iii-583--004_rygall-ignacy--huc-ad-festum-et-amoris-sacris-flammas-hac-persona.krn
!!!cenid: 17xx:1110
!!!COM: Rygall, Ignacy
!!!COM-rismID: pe30110281
!!!CDT: <1750->1799
!!!CNT:
!!!OPR: Huc ad festum
!!!OTL: Et amoris sacris flammas - Hac persona
!!!OMV: 004
!!!PDT: 1776
!!!AGN:
!!!SMS-siglum: PL-CZ
!!!SMS-shelfmark: III-583
!!!SMS-shelfwork: 001-004 M
!!!SMS-variant:
!!!SMS-altvar:
!!!NIFC-rismSourceID: 300001125
!!!NIFC-islandoraID: pl-cz:39335
!!!URL-pdf-islandora: https://repozytorium.nifc.pl/islandora/object/pl-cz%3A39335/datastream/PDF/view
!!!URL-scan:
!!!ONB-nifc: UWAGA: części Huc ad festum: Huc ad festum/Omni die dic Mariae, Et amoris sacris flammas/Con templare, Huc ad festum/Ipsam cole, Et amoris sactis flammas/Hac persona. Uwaga: uwzględnić obie partie wokalne z różnymi tekstami – Soprano Solo i Canto Solo
!!!AIN: 1 cbass 2 soprn 1 viola 2 violn
!!!key: B-
**kern	**kern	**kern	**kern	**dynam	**kern	**text	**kern	**text
*group1	*group1	*group1	*group1	*	*	*	*	*
*part6	*part5	*part4	*part3	*part3	*part2	*part2	*part1	*part1
*staff6	*staff5	*staff4	*staff3	*	*staff2	*staff2	*staff1	*staff1
*I"Baſso	*I"Viola	*I"Violino Secondo	*I"Violino Prime	*	*I"Canto Solo:	*	*I"Soprano Solo	*
*I'cb	*I'vla	*I'vl 2	*I'vl 1	*	*I'S	*	*I'S	*
*Icbass	*Iviola	*Ivioln	*Ivioln	*	*Isoprn	*	*Isoprn	*
*ICstr	*ICstr	*ICstr	*ICstr	*	*ICvox	*	*ICvox	*
*clefF4	*clefC3	*clefG2	*clefG2	*	*clefC1	*	*clefC1	*
*k[b-e-]	*k[b-e-]	*k[b-e-]	*k[b-e-]	*	*k[b-e-]	*	*k[b-e-]	*
*B-:	*B-:	*B-:	*B-:	*	*B-:	*	*B-:	*
*M4/4	*M4/4	*M4/4	*M4/4	*	*M4/4	*	*M4/4	*
*met(c)	*met(c)	*met(c)	*met(c)	*	*met(c)	*	*met(c)	*
*2\right	*	*	*2\right	*	*all\right	*	*	*
=1	=1	=1	=1	=1	=1	=1	=1	=1
*tremolo	*tremolo	*tremolo	*tremolo	*	*2\right	*	*2\right	*
!LO:TX:a:B:t=allo molto	!LO:TX:a:B:t=allo molto	!LO:TX:a:B:t=allo molto	!LO:TX:a:B:t=alo mo;to	!	!	!	!	!
8B-\L	8F/L	8d/L	8b-\L	.	2.b-\	Haec	2b-\	et
8B-\	8F/	8d/	8b-\	.	.	.	.	.
8B-\	8F/	8d/	8b-\	.	.	.	.	.
8B-\J	8F/J	8d/J	8b-\J	.	.	.	.	.
8B-\L	8F/L	8d/L	8b-\L	.	.	.	4b-\	.
8B-\	8F/	8d/	8b-\	.	.	.	.	.
8B-\	8F/	8d/	8b-\	.	4b-\	Per-	4b-\	a-
8B-\J	8F/J	8d/J	8b-\J	.	.	.	.	.
*	*	*Xtremolo	*Xtremolo	*	*	*	*	*
=2	=2	=2	=2	=2	=2	=2	=2	=2
8B-\L	8G/L	8d/L	8bn\L	.	(4b#X\	-so-	4b-\	-mo-
8B-\	8G/	8e-X/	8cc\	.	.	.	.	.
8B-\	8G/	8e-/	8cc\	.	4cc\)	.	4cc\	.
8B-\J	8G/J	8e-/J	8cc\J	.	.	.	.	.
*	*	*tremolo	*tremolo	*	*	*	*	*
8B-\L	8F/L	8e-/L	8cc\L	.	4cc\	-na	4cc\	-ris
8B-\	8F/	8e-/	8cc\	.	.	.	.	.
8B-\	8F/	8e-/	8cc\	.	4r	.	4r	.
8B-\J	8F/J	8e-/J	8cc\J	.	.	.	.	.
=3	=3	=3	=3	=3	=3	=3	=3	=3
*	*	*2\right	*	*	*	*	*	*
8B-\L	8F/L	8a-X\L	8dd\L	.	[2dd\	no-	2dd\	sa-
8B-\	8F/	8a-\	8dd\	.	.	.	.	.
8B-\	8F/	8a-\	8dd\	.	.	.	.	.
8B-\J	8F/J	8a-\J	8dd\J	.	.	.	.	.
8B-\L	8G/L	8a-\L	8dd\L	.	4dd\]	.	4dd\	.
8B-\	8G/	8a-\	8dd\	.	.	.	.	.
8B-\	8G/	8a-\	8dd\	.	4ff\	-bis	4ff\	-cri
8B-\J	8G/J	8a-\J	8dd\J	.	.	.	.	.
*	*	*Xtremolo	*Xtremolo	*	*	*	*	*
!	!	!LO:LB:g=original	!	!	!	!	!LO:LB:g=original	!
=4	=4	=4	=4	=4	=4	=4	=4	=4
8B-\L	8B-/L	8b-\L	8dd\L	.	(4ff\	do-	4ff\	flam-
8B-\	8B-/	8g\	8ee-\	.	.	.	.	.
8B-\	8B-/	8g\	8ee-\	.	4ee-\)	.	4ee-\	.
8B-\J	8B-/J	8g\J	8ee-\J	.	.	.	.	.
*	*	*tremolo	*tremolo	*	*	*	*	*
8B-\L	8B-/L	8g\L	8ee-\L	.	4ee-\	-na	4ee-\	-(m)as
8B-\	8B-/	8g\	8ee-\	.	.	.	.	.
8B-\	8B-/	8g\	8ee-\	.	4r	.	4r	.
8B-\J	8B-/J	8g\J	8ee-\J	.	.	.	.	.
*	*	*Xtremolo	*Xtremolo	*	*	*	*	*
=5	=5	=5	=5	=5	=5	=5	=5	=5
8B-\L	8F/L	8g/L	8ee-\L	.	4ee-\	con-	2ee-\	cor-
8B-\	8F/	8e-/	8a\	.	.	.	.	.
8B-\	8F/	8e-/	8a\	.	4ee-\	-tu-	.	.
8B-\J	8F/J	8e-/J	8a\J	.	.	.	.	.
*	*	*tremolo	*tremolo	*	*	*	*	*
8B-\L	8F/L	8e-/L	8a\L	.	2a\	-lit	4a\	.
8B-\	8F/	8e-/	8a\	.	.	.	.	.
8B-\	8F/	8e-/	8a\	.	.	.	4a\	-de
8B-\J	8F/J	8e-/J	8a\J	.	.	.	.	.
*	*	*Xtremolo	*Xtremolo	*	*	*	*	*
!LO:LB:g=original	!	!	!	!	!	!	!	!
=6	=6	=6	=6	=6	=6	=6	=6	=6
8B-\L	8F/L	8e-/L	8a/L	.	4cc\	con-	(4cc\	ves-
8B-\	8F/	8d/	8b-/	.	.	.	.	.
8B-\	8F/	8d/	8b-/	.	4b-\	-tu-	4b-\)	.
8B-\J	8F/J	8d/J	8b-/J	.	.	.	.	.
*Xtremolo	*Xtremolo	*	*	*	*	*	*	*
!	!LO:TX:t=P:problem=mixed beam	!LO:TX:t=P:problem=mixed beam	!	!	!	!	!	!
8B-\L	8F/L	8d/L	8b-/L	.	4b-,<\	-lit	4b-\	-tro
8B-\	8F/	8d/	8b-/	.	.	.	.	.
8F|\	8f\	8ff\	8ff/	.	4ff\	Cae-	4ff\	.
8F|\J	8f\J	8ff\J	8ff/J	.	.	.	.	.
!	!LO:LB:g=original	!	!	!	!LO:LB:g=original	!	!	!
=7	=7	=7	=7	=7	=7	=7	=7	=7
8E-|\L	8e-\L	8ee-\L	8ee-\L	.	4ee-\	-le-	4ee-\	ex-
8E-|\	8e-\	8ee-\	8ee-\	.	.	.	.	.
8D|\	8d\	8dd\	8dd\	.	4dd\	.	4dd\	-ci-
8D|\J	8d\J	8dd\J	8dd\J	.	.	.	.	.
8C|\L	8c\L	8cc\L	8cc\L	.	4cc,<\	.	4cc\	-ta-
8C|\	8c\	8cc\	8cc\	.	.	.	.	.
8BB-|\	8B-\	8b-\	8b-\	.	4b-\	-sti-	4b-\	.
8BB-|\J	8B-\J	8b-\J	8b-\J	.	.	.	.	.
!	!	!	!LO:LB:g=original	!	!	!	!	!
=8	=8	=8	=8	=8	=8	=8	=8	=8
4F\	4f\	4a\	4ff\	.	2f/	-a	2.f/	-te
8FF/L	8F/L	8f\L	8f/L	.	.	.	.	.
8FF/J	8F/J	8f\J	8f/J	.	.	.	.	.
!	!	!	!	!	!LO:TX:t=P:problem=brak połowy taktu	!	!	!
4FF/	4F/	4f\	4f/	.	2ryy	.	.	.
8A|\L	4r	8f\L	8c|/L	.	.	.	4r	.
8F|\J	.	8f\J	8e-|/J	.	.	.	.	.
=9	=9	=9	=9	=9	=9	=9	=9	=9
!	!	!	!	!	!LO:TX:t=P:problem=brak połowy taktu	!	!	!
8B-|\L	8B-/L	8f/	8d|/L	.	2ryy	.	2r	.
8F|\	8F/	4f/	8f|/	.	.	.	.	.
8A|\	8A/	.	8c|/	.	.	.	.	.
8F|\J	8F/J	4f/	8e-|/J	.	.	.	.	.
8B-|\L	8B-/L	.	8d|/L	.	4r	.	4r	.
8F|\	8F/	4f/	8f|/	.	.	.	.	.
8A|\	8A/	.	8c|/	.	8a\	haec	8a\	sa-
8F|\J	8F/J	8f/	8e-|/J	.	8a\	Re-	8a\	-cri
=10	=10	=10	=10	=10	=10	=10	=10	=10
8B-|\L	8B-/L	8f/	8d/L	.	(8b-\L	-gi-	8b-\L	flam-
8F|\	8F/	4f/	8b-/	.	8f\J)	.	8f\J	.
8B-|\	8B-/	.	8f/	.	4f/	-na	4f\	-(m)as
8F|\J	8F/J	4f/	8f/J	.	.	.	.	.
8B-\L	8B-/L	.	4f/	.	2r	.	2r	.
8F\	8F/	4f/	.	.	.	.	.	.
8A\	8A/	.	8c/L	.	.	.	.	.
8F\J	8F/J	8f/	8e-/J	.	.	.	.	.
!	!	!LO:LB:g=original	!	!	!	!	!	!
=11	=11	=11	=11	=11	=11	=11	=11	=11
8B-\L	8B-/L	8f/	8d/L	.	2r	.	2r	.
8F\	8F/	4f/	8f/	.	.	.	.	.
8A\	8A/	.	8c/	.	.	.	.	.
8F\J	8F/J	4f/	8e-/J	.	.	.	.	.
8B-\L	8B-/L	.	8d/L	.	4r	.	4r	.
8F\	8F/	4f/	8f/	.	.	.	.	.
8A\	8A/	.	8c/	.	8a\	nos	8a\	cor-
8F\J	8F/J	8f/	8e-/J	.	8a\	Di-	8a\	-de
!	!	!	!	!	!	!	!LO:LB:g=original	!
=12	=12	=12	=12	=12	=12	=12	=12	=12
8B-\L	8B-/L	8f/	8d/L	.	(8b-\L	-vi-	8b-\L	ves-
8F\	8F/	4f/	8b-/	.	8f\J)	.	8f\J	.
8B-\	8B-/	.	8f/	.	4f/	-na	4f\	-tro
8F\J	8F/J	4f/	8f/J	.	.	.	.	.
!	!	!	!	!	!LO:TX:t=P:problem=brak połowy taktu	!	!	!
8B-\L	8B-/L	.	4f/	.	2f/yy	.	2r	.
8F\	8F/	4f/	.	.	.	.	.	.
8A\	8A/	.	8c/L	.	.	.	.	.
8F\J	8F/J	8f/	8e-/J	.	.	.	.	.
!	!LO:PB:g=original	!	!	!	!	!	!	!
=13	=13	=13	=13	=13	=13	=13	=13	=13
!	!	!	!	!	!LO:TX:t=P:problem=brak połowy taktu	!	!	!
8B-\L	8B-/L	8f/	8d/L	.	2a\yy	.	2r	.
8F\	8F/	4f/	8f/	.	.	.	.	.
8A\	8A/	.	8c/	.	.	.	.	.
8F\J	8F/J	4f/	8e-/J	.	.	.	.	.
8B-\L	8B-/L	.	8d/L	.	4r	.	4r	.
8F\	8F/	4f/	8f/	.	.	.	.	.
8A\	8A/	.	8c/	.	8a\	haec	8a\	ex-
8F\J	8F/J	8f/	8e-/J	.	8a\	Re-	8a\	-ci-
=14	=14	=14	=14	=14	=14	=14	=14	=14
8B-\L	8B-/L	8f/	8d/L	.	(8b-\L	-gi-	8b-\L	-ta-
8F\	8F/	4f/	8b-/J	.	8f\J)	.	8f\J	.
8B-\	8B-/	.	8f/L	.	4f\	-na	4f\	-te
8F\J	8F/J	4f/	8f/J	.	.	.	.	.
!	!LO:N:vis=4	!	!	!	!	!	!	!
8B-\L	8B-/	.	4f/	.	4r	.	4r	.
!	!LO:N:vis=4	!	!	!	!	!	!	!
8F\	8F//	8f/	.	.	.	.	.	.
8D\	8A/L	8b-\L	8ff\L	.	8ff\	il-	8ff\	ex-
8D\J	8d/J	8b-\J	8ff\J	.	8ff\	-lu-	8ff\	-ci-
!LO:PB:g=original	!	!	!LO:LB:g=original	!	!LO:LB:g=original	!	!	!
=15	=15	=15	=15	=15	=15	=15	=15	=15
*	*2\right	*	*	*	*	*	*	*
*tremolo	*tremolo	*tremolo	*tremolo	*	*	*	*	*
8E-\L	8e-\L	8b-\L	8gg\L	.	16gg\LL	-stra-	16gg\LL	-ta-
.	.	.	.	.	16ff#X\	.	16ff#X\	.
8E-\	8e-\	8b-\	8gg\	.	16gg\	.	16gg\	.
.	.	.	.	.	16aa\JJ	.	16aa\JJ	.
8E-\	8e-\	8b-\	8gg\	.	4.gg\	.	4.gg\	.
8E-\J	8e-\J	8b-\J	8gg\J	.	.	.	.	.
*	*	*Xtremolo	*	*	*	*	*	*
8E-\L	8e-\L	8b-\L	8gg\L	.	.	.	.	.
8E-\	8e-\	8b-\	8gg\	.	(8ffn\L	.	8ffn\L	.
8E-\	8e-\	8bn\	8gg\	.	8ee-X\	.	8ee-X\	.
8E-\J	8e-\J	8b\J	8gg\J	.	8dd\J)	.	8dd\J	.
=16	=16	=16	=16	=16	=16	=16	=16	=16
*	*	*tremolo	*	*	*	*	*	*
8A\L	8A/L	8cc\L	8gg\L	.	(16cc\LL	.	16cc\LL	.
.	.	.	.	.	16bn\	.	16bn\	.
8A\	8A/	8cc\	8gg\	.	16cc\	.	16cc\	.
.	.	.	.	.	16dd\JJ)	.	16dd\JJ	.
8A\	8A/	8cc\	8gg\	.	4.cc\	.	4.cc\	.
8A\J	8A/J	8cc\J	8gg\J	.	.	.	.	.
8A\L	8A/L	8cc\L	8gg\L	.	.	.	.	.
8A\	8A/	8cc\	8gg\	.	(8cc\L	.	8cc\L	.
8A\	8A/	8cc\	8gg\	.	8dd\	.	8dd\	.
8A\J	8A/J	8cc\J	8gg\J	.	8ee-\J)	.	8ee-\J	.
=17	=17	=17	=17	=17	=17	=17	=17	=17
8D\L	8d\L	8cc\L	8ff\L	.	16ff\LL	.	16ff\LL	.
.	.	.	.	.	16ee-\	.	16ee-\	.
8D\	8d\	8cc\	8ff\	.	16ff\	.	16ff\	.
.	.	.	.	.	16gg\JJ	.	16gg\JJ	.
8D\	8d\	8cc\	8ff\	.	4.ff\	.	4.ff\	.
8D\J	8d\J	8cc\J	8ff\J	.	.	.	.	.
*	*	*Xtremolo	*	*	*	*	*	*
8D\L	8d\L	8cc\L	8ff\L	.	.	.	.	.
8D\	8d\	8cc\	8ff\	.	8ee-\L	.	8ee-\L	.
8D\	8d\	8a\	8ff\	.	8dd\	.	8dd\	.
8D\J	8d\J	8a\J	8ff\J	.	8cc\J	.	8cc\J	.
!	!	!	!	!	!	!	!LO:PB:g=original	!
=18	=18	=18	=18	=18	=18	=18	=18	=18
*	*	*tremolo	*	*	*	*	*	*
8G\L	8G/L	8b-\L	8ff\L	.	(16b-\LL	.	16b-\LL	.
.	.	.	.	.	16cc\	.	16cc\	.
8G\	8G/	8b-\	8ff\	.	16b-\	.	16b-\	.
.	.	.	.	.	16a\JJ)	.	16a\JJ	.
8G\	8G/	8b-\	8ff\	.	4.b-\	.	4.b-\	.
8G\J	8G/J	8b-\J	8ff\J	.	.	.	.	.
8G\L	8G/L	8b-\L	8ff\L	.	.	.	.	.
8G\	8G/	8b-\	8ff\	.	(8b-\L	.	8b-\L	.
8G\	8G/	8b-\	8ff\	.	8cc\	.	8cc\	.
8G\J	8G/J	8b-\J	8ff\J	.	8dd\J)	.	8dd\J	.
=19	=19	=19	=19	=19	=19	=19	=19	=19
8C\L	8c\L	8b-\L	8ee-\L	.	16ee-\LL	.	16ee-\LL	.
.	.	.	.	.	16ff\	.	16ff\	.
8C\	8c\	8b-\	8ee-\	.	16ee-\	.	16ee-\	.
.	.	.	.	.	16dd\JJ	.	16dd\JJ	.
8C\	8c\	8b-\	8ee-\	.	4.ee-\	.	4.ee-\	.
8C\J	8c\J	8b-\J	8ee-\J	.	.	.	.	.
*	*	*Xtremolo	*	*	*	*	*	*
8C\L	8c\L	8b-\L	8ee-\L	.	.	.	.	.
8C\	8c\	8b-\	8ee-\	.	8dd\L	.	8dd\L	.
8C\	8c\	8g\	8ee-\	.	8cc\	.	8cc\	.
!	!	!LO:TX:b:i:t=V C&colon;	!	!	!	!	!	!
8C\J	8c\J	8g\J	8ee-\J	.	8b-\J	.	8b-\J	.
!	!	!LO:PB:g=original	!	!	!LO:LB:g=original	!	!	!
=20	=20	=20	=20	=20	=20	=20	=20	=20
*	*	*tremolo	*	*	*	*	*	*
!	!	!	!LO:TX:t=P:problem=takt nr 20 zapisany repetycją	!	!	!	!	!
8F\L	8F/L	8a\L	8ee-\Lyy	.	(16a\LL	.	16a\LL	.
.	.	.	.	.	16b-\	.	16b-\	.
8F\	8F/	8a\	8ee-\yy	.	16a\)	.	16a\	.
.	.	.	.	.	16g\JJ	.	16g\JJ	.
8F\	8F/	8a\	8ee-\yy	.	(4.a\	.	4.a\	.
8F\J	8F/J	8a\J	8ee-\Jyy	.	.	.	.	.
8F\L	8F/L	8a\L	8ee-\Lyy	.	.	.	.	.
8F\	8F/	8a\	8ee-\yy	.	8cc\)	.	8cc\L	.
8F\	8F/	8a\	8ee-\yy	.	(8dd\L	-vit	8dd\	.
8F\J	8F/J	8a\J	8ee-\Jyy	.	8ee-\J)	.	8ee-\J	.
*Xtremolo	*Xtremolo	*Xtremolo	*Xtremolo	*	*	*	*	*
!	!LO:LB:g=original	!	!	!	!	!	!	!
=21	=21	=21	=21	=21	=21	=21	=21	=21
2BB-/	4B-/	4f/	4dd\	.	4.dd\	gra-	4dd\	.
.	4B-/	4f/	4ff\	.	.	.	4ff\	-te
.	.	.	.	.	16ff\	-ti-	.	.
.	.	.	.	.	16ff\	-a	.	.
4r	4r	4r	4r	.	2r	.	2r	.
8A\L	8A/L	8f/L	8c/L	.	.	.	.	.
8F\J	8F/J	8f/J	8e-/J	.	.	.	.	.
=22	=22	=22	=22	=22	=22	=22	=22	=22
8B-\L	8B-/L	8f/	8d/L	.	2r	.	2r	.
8F\	8F/	4f/	8f/	.	.	.	.	.
8A\	8A/	.	8c/	.	.	.	.	.
8F\J	8F/J	4f/	8e-/J	.	.	.	.	.
8B-\L	8B-/L	.	8d/L	.	4r	.	4r	.
8F\	8F/	4f/	8f/	.	.	.	.	.
8A\	8A/	.	8c/	.	8a\	haec	8a\	Sa-
8F\J	8F/J	8f/	8e-/J	.	8a\	Per-	8a\	-cri
!LO:LB:g=original	!	!	!	!	!	!	!	!
=23	=23	=23	=23	=23	=23	=23	=23	=23
8B-\L	8B-/L	8f/	8d/L	.	4b-\	-so-	4b-\	flam-
8F\	8F/	4f/	8b-/	.	.	.	.	.
8B-\	8B-/	.	8f/	.	4f\	-na	4f\	-(m)as
8F\J	8F/J	4f/	8f/J	.	.	.	.	.
8B-\L	8B-/L	.	4f/	.	2r	.	2r	.
8F\	8F/	4f/	.	.	.	.	.	.
8A\	8A/	.	8c/L	.	.	.	.	.
8F\J	8F/J	8f/	8e-/J	.	.	.	.	.
=24	=24	=24	=24	=24	=24	=24	=24	=24
8B-\L	8B-/L	8f/	8d/L	.	2r	.	2r	.
8F\	8F/	4f/	8f/	.	.	.	.	.
8A\	8A/	.	8c/	.	.	.	.	.
8F\J	8F/J	4f/	8e-/J	.	.	.	.	.
!	!	!	!LO:LB:g=original	!	!	!	!	!
8B-\L	8B-/L	.	8d/L	.	4r	.	4r	.
8F\	8F/	4f/	8f/	.	.	.	.	.
8A\	8A/	.	8c/	.	8a\	no-	8a\	cor-
8F\J	8F/J	8f/	8e-/J	.	8a\	-bis	8a\	-de
!	!	!	!	!	!	!	!LO:LB:g=original	!
=25	=25	=25	=25	=25	=25	=25	=25	=25
8B-\L	8B-/L	8f/	8d/L	.	4b-\	do-	4b-\	ves-
8F\	8F/	4f/	8b-/	.	.	.	.	.
8B-\	8B-/	.	8f/	.	4f\	-na.	4f\	-tro
8F\J	8F/J	4f/	8f/J	.	.	.	.	.
!	!	!	!	!	!LO:TX:b:i:t=Vertatur	!	!	!
8B-\L	8B-/L	.	4f/	.	2r	.	2r	.
8F\	8F/	4f/	.	.	.	.	.	.
8A\	8A/	.	8c/L	.	.	.	.	.
8F\J	8F/J	8f/	8e-/J	.	.	.	.	.
!	!	!	!	!	!LO:PB:g=original	!	!	!
=26	=26	=26	=26	=26	=26	=26	=26	=26
8B-\L	8B-/L	8f/	8d/L	.	2r	.	2r	.
8F\	8F/	4f/	8f/	.	.	.	.	.
8A\	8A/	.	8c/	.	.	.	.	.
8F\J	8F/J	4f/	8e-/J	.	.	.	.	.
8B-\L	8B-/L	.	8d/L	.	4r	.	4r	.
8F\	8F/	4f/	8f/	.	.	.	.	.
8A\	8A/	.	8c/	.	8a,<\	Haec	8a\	ex-
8F\J	8F/J	8f/	8e-/J	.	8a\	Re-	8a\	-ci-
!	!LO:LB:g=original	!	!	!	!	!	!	!
=27	=27	=27	=27	=27	=27	=27	=27	=27
8B-\L	8B-/L	8f/	8d/L	.	4b-\	-gi-	4b-\	-ta-
8F\	8F/	4f/	8b-/	.	.	.	.	.
8B-\	8B-/	.	8f/	.	4f\	-na	4f\	-te
8F\J	8F/J	4f/	8f/J	.	.	.	.	.
8B-\L	8B-/L	.	4f/	.	4r	.	4r	.
8F\	8F/J	4f/	.	.	.	.	.	.
8A\	8A/L	.	8ff\L	.	8ff\	nos	8ff\	cor-
8F\J	8A/J	8f/	8ff\J	.	8ff\	Di-	8ff\	-de
!	!	!LO:LB:g=original	!	!	!	!	!	!
=28	=28	=28	=28	=28	=28	=28	=28	=28
*tremolo	*tremolo	*tremolo	*tremolo	*	*	*	*	*
8E-\L	8e-\L	8b-\L	8gg\L	.	2gg\	-vi-	2gg\	ves-
8E-\	8e-\	8b-\	8gg\	.	.	.	.	.
8E-\	8e-\	8b-\	8gg\	.	.	.	.	.
8E-\J	8e-\J	8b-\J	8gg\J	.	.	.	.	.
8F\L	8f\L	8e-X/L	8a/L	.	2a\	-na	2a\	-tro
8F\	8f\	8e-/	8a/	.	.	.	.	.
8F\	8f\	8e-/	8a/	.	.	.	.	.
8F\J	8f\J	8e-/J	8a/J	.	.	.	.	.
=29	=29	=29	=29	=29	=29	=29	=29	=29
8G\L	8g\L	8d/L	8cc\L	.	2b-\	il-	2b-\	ex-
8G\	8g\	8d/	8cc\	.	.	.	.	.
8G\	8g\	8d/	8cc\	.	.	.	.	.
8G\J	8g\J	8d/J	8cc\J	.	.	.	.	.
8A\L	8a\L	8f/L	8cc\L	.	2cc\	-lu-	2cc\	-ci-
8A\	8a\	8f/	8cc\	.	.	.	.	.
8A\	8a\	8f/	8cc\	.	.	.	.	.
8A\J	8a\J	8f/J	8cc\J	.	.	.	.	.
*	*Xtremolo	*	*	*	*	*	*	*
=30	=30	=30	=30	=30	=30	=30	=30	=30
!	!LO:TX:t=P:problem=mixed beam	!	!	!	!	!	!	!
8B-\L	8b-\L	8f/L	8dd\L	.	2dd\	-stra-	2dd\	-ta-
8B-\	8B-/	8f/	8dd\	.	.	.	.	.
8B-\	8B-/	8f/	8dd\	.	.	.	.	.
8B-\J	8B-/J	8f/J	8dd\J	.	.	.	.	.
*	*tremolo	*	*	*	*	*	*	*
8e-\L	8e-\L	8cc\L	8aa\L	.	2a\	-vit	2a\	.
8e-\	8e-\	8cc\	8aa\	.	.	.	.	.
8e-\	8e-\	8cc\	8aa\	.	.	.	.	.
8e-\J	8e-\J	8cc\J	8aa\J	.	.	.	.	.
=31	=31	=31	=31	=31	=31	=31	=31	=31
8d\L	8d\L	8dd\L	8bb-\L	.	2b-\	il-	2b-\	.
8d\	8d\	8dd\	8bb-\	.	.	.	.	.
8d\	8d\	8dd\	8bb-\	.	.	.	.	.
8d\J	8d\J	8dd\J	8bb-\J	.	.	.	.	.
8E-\L	8e-\L	8cc\L	8ee-\L	.	2ee-\	-lu-	2ee-\	.
8E-\	8e-\	8cc\	8ee-\	.	.	.	.	.
8E-\	8e-\	8cc\	8ee-\	.	.	.	.	.
8E-\J	8e-\J	8cc\J	8ee-\J	.	.	.	.	.
!	!	!	!LO:LB:g=original	!	!	!	!	!
=32	=32	=32	=32	=32	=32	=32	=32	=32
8F\L	8f\L	8b-\L	8dd\L	.	(2dd\	-stra-	2dd\	.
8F\	8f\	8b-\	8dd\	.	.	.	.	.
8F\	8f\	8b-\	8dd\	.	.	.	.	.
8F\J	8f\J	8b-\J	8dd\J	.	.	.	.	.
8FF/L	8F/L	8a\L	8cc\L	.	2cc\)	.	2cc\	.
8FF/	8F/	8a\	8cc\	.	.	.	.	.
8FF/	8F/	8a\	8cc\	.	.	.	.	.
8FF/J	8F/J	8a\J	8cc\J	.	.	.	.	.
*Xtremolo	*Xtremolo	*Xtremolo	*Xtremolo	*	*	*	*	*
!	!	!	!	!	!	!	!LO:LB:g=original	!
=33	=33	=33	=33	=33	=33	=33	=33	=33
4BB-|>/	4B-\	4d/	4b-\	.	4b-,<\	-vit	8b-\	-te
.	.	.	.	.	.	.	8r	.
4B-|\	4B-\	4d/	4bb-\	p	4b-\	nos	4b-\	cor-
4c|\	4c\	4e-/	4bb-\	.	4b-\	il-	4b-\	.
4d|\	4d\	4f/	4bb-\	.	4b-\	-lu-	4b-\	-de
!	!	!	!	!	!LO:LB:g=original	!	!	!
=34	=34	=34	=34	=34	=34	=34	=34	=34
4.e-\	4.e-\	4.g/	4.bb-\	f	4.b-\	-stra-	4.b-\	ves-
8E-\	8e-\	8ee-\	8gg\	.	8gg\	-vit	8gg\	-tro
4F\	4f\	8dd\L	8ff\L	.	(8ff\L	gra-	8ff\L	ex-
.	.	8cc\	8ee-\	.	8ee-\J)	.	8ee-\	-ci-
4FF/	4F/	8b-\	8dd\	.	(8dd\L	-ti-	(8dd\	-ta-
.	.	8a\J	8cc\J	.	8cc\J)	.	8cc\J)	.
!	!LO:LB:g=original	!	!	!	!	!	!	!
=35	=35	=35	=35	=35	=35	=35	=35	=35
4B-\	4B-\	4d/	4b-\	.	4b-,<\	-a	4b-\	-te
8BB-/L	8B-\L	8d/L	8bb-\L	p	4b-,<\	nos	4b-\	cor-
8BB-/J	8B-\J	8d/J	8bb-\J	.	.	.	.	.
8C/L	8c\L	8e-/L	4bb-\	.	4b-\	il-	4b-\	.
8C/	8c\	8e-/	.	.	.	.	.	.
8D/	8d\	8f/	4bb-\	.	4b-\	-lu-	4b-\	-de
8D/J	8d\J	8f/J	.	.	.	.	.	.
!	!	!LO:LB:g=original	!	!	!	!	!	!
=36	=36	=36	=36	=36	=36	=36	=36	=36
*tremolo	*tremolo	*	*	*	*	*	*	*
8E-\L	8e-\L	4.g/	4.bb-\	f	4.b-\	-stra-	4.b-\	ves-
8E-\	8e-\	.	.	.	.	.	.	.
8E-\	8e-\	.	.	.	.	.	.	.
8E-\J	8e-\J	8ee-\	8gg\	.	8gg\	-vit	8gg\	-tro
*Xtremolo	*Xtremolo	*	*	*	*	*	*	*
!LO:TX:t=P:problem=mixed beam	!LO:TX:t=P:problem=mixed beam	!	!	!	!	!	!	!
8F\L	8f\L	8dd\L	8ff\L	.	8ff\L	gra-	8ff\L	ex-
8F\	8f\	8cc\	8ee-\	.	8ee-\J	.	8ee-\J	-ci-
8FF/	8F/	8b-\	8dd\	.	(8dd\L	-ti-	8dd\L	-ta-
8FF/J	8F/J	8a\J	8cc\J	.	8cc\J)	.	8cc\J	.
!LO:LB:g=original	!	!	!	!	!	!	!	!
=37	=37	=37	=37	=37	=37	=37	=37	=37
.	.	.	.	.	8qqcc/	.	.	.
!LO:TX:t=P:problem=mixed beam	!	!	!	!	!	!	!	!
8BB-/L	8B-\L	8b-\L	8b-\L	.	2b-\	-a.	2b-\	-te
16B-\L	16B-\L	16b-\L	16b-\L	.	.	.	.	.
16c\JJ	16c\JJ	16cc\JJ	16cc\JJ	.	.	.	.	.
8d\L	8d\L	8dd\L	8dd\L	.	.	.	.	.
8B-\J	8B-\J	8b-\J	8b-\J	.	.	.	.	.
8e-\L	8e-\L	8ee-\L	8ee-\L	.	2r	.	2r	.
8c\	8c\	8cc\	8cc\	.	.	.	.	.
8A\	8A\	8a\	8a\	.	.	.	.	.
8F\J	8F\J	8f\J	8f\J	.	.	.	.	.
=38	=38	=38	=38	=38	=38	=38	=38	=38
!LO:TX:t=P:problem=mixed beam	!	!	!	!	!LO:TX:a:t=5&colon;	!	!	!
8BB-/L	8B-\L	8b-\L	8b-\L	.	00r	.	00r	.
16B-\L	16B-\L	16b-\L	16b-\L	.	.	.	.	.
16c\JJ	16c\JJ	16cc\JJ	16cc\JJ	.	.	.	.	.
8d\L	8d\L	8dd\L	8dd\L	.	.	.	.	.
8B-\J	8B-\J	8b-\J	8b-\J	.	.	.	.	.
8e-\L	8e-\L	8ee-\L	8ee-\L	.	.	.	.	.
8c\	8c\	8cc\	8cc\	.	.	.	.	.
8A\	8A\	8a\	8a\	.	.	.	.	.
8F\J	8F\J	8f\J	8f\J	.	.	.	.	.
!	!	!	!LO:LB:g=original	!	!	!	!	!
=39	=39	=39	=39	=39	=39	=39	=39	=39
!LO:TX:t=P:problem=mixed beam	!	!LO:TX:t=P:problem=mixed beam	!LO:TX:t=P:problem=mixed beam	!	!	!	!	!
8B-\L	8B-\L	8b-\L	8b-\L	.	.	.	.	.
16BB-/L	16B-\L	16B-/L	16B-/L	.	.	.	.	.
16C/JJ	16c\JJ	16c/JJ	16c/JJ	.	.	.	.	.
8D/L	8d\L	8d/L	8d/L	.	.	.	.	.
8BB-/J	8B-\J	8B-/J	8B-/J	.	.	.	.	.
8E-\L	8e-\L	8e-/L	8e-/L	.	.	.	.	.
8C\J	8c\J	8c/J	8c/J	.	.	.	.	.
8F\L	8f\L	8f/L	8f/L	.	.	.	.	.
8D\J	8d\J	8d/J	8d/J	.	.	.	.	.
!	!LO:LB:g=original	!	!	!	!	!	!	!
=40	=40	=40	=40	=40	=40	=40	=40	=40
8G\L	8g\L	8g/L	8g/L	.	.	.	.	.
8E-\J	8e-\J	8e-/J	8e-/J	.	.	.	.	.
8A\L	8a\L	8a/L	8a/L	.	.	.	.	.
8F\J	8f\J	8f/J	8f/J	.	.	.	.	.
4B-\	4b-\	4b-/	4b-/	.	.	.	.	.
4D\	4d\	4d/	4d/	.	.	.	.	.
=41	=41	=41	=41	=41	=41	=41	=41	=41
4.E-\	4.e-\	8.e-/L	4.e-/	.	.	.	.	.
.	.	32d/LL	.	.	.	.	.	.
.	.	32e-/JJJ	.	.	.	.	.	.
.	.	4f/	.	.	.	.	.	.
!	!	!	!LO:N:vis=8	!	!	!	!	!
16D\LL	16d\LL	.	16d/LL	.	.	.	.	.
!	!	!	!LO:N:vis=8	!	!	!	!	!
16E-\JJ	16e-\JJ	.	16e-/JJ	.	.	.	.	.
4F\	4f\	4f/	4f/	.	.	.	.	.
4FF/	4F/	4B-/	4f/	.	.	.	.	.
=42	=42	=42	=42	=42	=42	=42	=42	=42
!	!	!LO:TX:t=P:problem=brak taktu nr 42	!	!	!	!	!	!
4BB-/	4B-\	1ryy	4b- 4d/	.	1r	.	1r	.
4B-\	4B-\	.	4bb- 4b- 4d\	.	.	.	.	.
4BB-/	4B-\	.	4bb- 4b- 4d\	.	.	.	.	.
4r	4r	.	4r	.	.	.	.	.
!LO:LB:g=original	!	!LO:LB:g=original	!	!	!	!	!	!
=43||;;	=43||;;	=43||;;	=43||;;	=43||	=43||;;	=43||	=43||;;	=43||
4G\	(4G/	4B-/	8gg\	.	2gg\	Lin-	2gg\	ad
.	.	.	4g/	.	.	.	.	.
4A\	4A/	4c/	.	.	.	.	.	.
.	.	.	4g/	.	.	.	.	.
4B-\	4B-/	4d/	.	.	2g\	-gua	4g/	.
.	.	.	4g/	.	.	.	.	.
4c\	4c/)	4e-/	.	.	.	.	4g/	hoc
.	.	.	8g/	.	.	.	.	.
!	!	!	!	!	!	!	!LO:LB:g=original	!
=44	=44	=44	=44	=44	=44	=44	=44	=44
4B-\	(4B-/	4d/	8gg\	.	8g/L	me-	8g\L	fes-
.	.	.	4g/	.	8f#X/J	.	8f#X\J	.
4A\	4A/	4c/	.	.	4g/	-a	4g\	-tum
.	.	.	4g/	.	.	.	.	.
4B-\	4B-/	4d/	.	.	2r	.	2r	.
.	.	.	4g/	.	.	.	.	.
4G\	4G/)	4B-/	.	.	.	.	.	.
.	.	.	8g/	.	.	.	.	.
!	!	!	!LO:LB:g=original	!	!LO:LB:g=original	!	!	!
=45	=45	=45	=45	=45	=45	=45	=45	=45
4A\	8d\	4c/	8aa\	.	2aa\	dic	2aa\	om-
.	4d\	.	4a/	.	.	.	.	.
4G\	.	4B-/	.	.	.	.	.	.
.	4d\	.	4a/	.	.	.	.	.
4F#X\	.	4A/	.	.	2a\	Tro-	4a\	.
.	4d\	.	4a/	.	.	.	.	.
4G\	.	4B-/	.	.	.	.	4a\	-nes
.	8d\	.	8a/	.	.	.	.	.
!	!LO:LB:g=original	!	!	!	!	!	!	!
=46	=46	=46	=46	=46	=46	=46	=46	=46
4A\	8d\	4c/	8aa\	.	(8a\L	-phae-	8a\L	gen-
.	4d\	.	4a/	.	8g#X\J)	.	8g#X\J	.
4G\	.	4B-/	.	.	4a\	-a	4a\	-tes
.	4d\	.	4a/	.	.	.	.	.
4A\	.	4c/	.	.	2r	.	2r	.
.	4d\	.	4a/	.	.	.	.	.
4F#X\	.	4A/	.	.	.	.	.	.
.	8d\	.	8a/	.	.	.	.	.
=47	=47	=47	=47	=47	=47	=47	=47	=47
4G\	(4B-/	8g/	8dd\	.	2.dd\	Vir-	2dd\	ma-
.	.	4g/	4dd\	.	.	.	.	.
4A\	4c/	.	.	.	.	.	.	.
.	.	4g/	4dd\	.	.	.	.	.
4B-\	4d/	.	.	.	.	.	4dd\	.
.	.	4g/	4dd\	.	.	.	.	.
4c\	4e-/)	.	.	.	4dd\	-gi-	4dd\	-gno
.	.	8g/	8dd\	.	.	.	.	.
=48	=48	=48	=48	=48	=48	=48	=48	=48
4B-\	(4d/	8g/	8dd\	.	4dd\	-ni	4dd\	ze-
.	.	4g/	4dd\	.	.	.	.	.
4A\	4c/	.	.	.	4r	.	4dd\	-lo
.	.	4g/	4dd\	.	.	.	.	.
4B-\	4d/	.	.	.	2r	.	2r	.
.	.	4g/	4dd\	.	.	.	.	.
4G\	4B-/)	.	.	.	.	.	.	.
.	.	8g/	8dd\	.	.	.	.	.
=49	=49	=49	=49	=49	=49	=49	=49	=49
4c\	4e-\	8g/	8ee-\	.	2ee-\	Pu-	2ee-\	fe-
.	.	4g/	4ee-\	.	.	.	.	.
4d\	4f\	.	.	.	.	.	.	.
.	.	4g/	4ee-\	.	.	.	.	.
4c\	4e-\	.	.	.	4ee-\	-er-	4ee-\	-sti-
.	.	4g/	4ee-\	.	.	.	.	.
4B-\	4d\	.	.	.	4ee-\	-pe-	4ee-\	.
.	.	8g/	8ee-\	.	.	.	.	.
=50	=50	=50	=50	=50	=50	=50	=50	=50
4A\	4c\	8f/	8ee-\	.	4ee-\	-rae	4ee-\	-na-
.	.	4f/	4ee-\	.	.	.	.	.
4G\	(4B-\	.	.	.	4r	.	4ee-\	-te
.	.	4f/	4ee-\	.	.	.	.	.
4A\	4c\	.	.	.	2r	.	2r	.
.	.	4f/	4ee-\	.	.	.	.	.
4F\	4A\)	.	.	.	.	.	.	.
.	.	8f/	8ee-\	.	.	.	.	.
!LO:LB:g=original	!	!LO:LB:g=original	!	!	!	!	!	!
=51	=51	=51	=51	=51	=51	=51	=51	=51
4B-\	(4d\	8f/	8dd\	.	2.dd\	quae	2dd\	et
.	.	4f/	4dd\	.	.	.	.	.
4c\	4e-\	.	.	.	.	.	.	.
.	.	4f/	4dd\	.	.	.	.	.
4B-\	4d\	.	.	.	.	.	4dd\	.
.	.	4f/	4dd\	.	.	.	.	.
4A\	4c\)	.	.	.	4dd\	in-	4dd\	hunc
.	.	8f/	8dd\	.	.	.	.	.
!	!	!	!LO:LB:g=original	!	!	!	!LO:LB:g=original	!
=52	=52	=52	=52	=52	=52	=52	=52	=52
4G\	(4B-/	8e-/	8dd\	.	4dd\	-fli-	4dd\	Sanc-
.	.	4e-/	4dd\	.	.	.	.	.
4F\	4A/	.	.	.	4dd\	-ctum	4dd\	-tum
.	.	4e-/	4dd\	.	.	.	.	.
4G\	4B-/	.	.	.	2r	.	2r	.
.	.	4e-/	4dd\	.	.	.	.	.
4E-\	4G/)	.	.	.	.	.	.	.
.	.	8e-/	8dd\	.	.	.	.	.
!	!LO:LB:g=original	!	!	!	!	!	!	!
=53	=53	=53	=53	=53	=53	=53	=53	=53
4A\	(4c\	8e-/	8cc\	.	2.cc\	Ma-	2cc\	in-
.	.	4e-/	4cc\	.	.	.	.	.
4B-\	4d\	.	.	.	.	.	.	.
.	.	4e-/	4cc\	.	.	.	.	.
4A\	4c\	.	.	.	.	.	4cc\	.
.	.	4e-/	4cc\	.	.	.	.	.
4G\	4B-\)	.	.	.	4cc\	-le	4cc\	-vo-
.	.	8e-/	8cc\	.	.	.	.	.
!	!	!	!	!	!LO:LB:g=original	!	!	!
=54	=54	=54	=54	=54	=54	=54	=54	=54
4F#X\	(4A/	8d/	8cc\	.	4cc\	dic-	4cc\	-ca-
.	.	4d/	4cc\	.	.	.	.	.
4E-\	4G/	.	.	.	4cc\	-tum	4cc\	-te
.	.	4d/	4cc\	.	.	.	.	.
4F#\	4A/	.	.	.	2r	.	2r	.
.	.	4d/	4cc\	.	.	.	.	.
4D\	4F#X/)	.	.	.	.	.	.	.
.	.	8d/	8cc\	.	.	.	.	.
=55	=55	=55	=55	=55	=55	=55	=55	=55
2.G\	2.G/	2.d/	2.b-\	.	4.gg\	mi-	4.gg\	Pa-
.	.	.	.	.	8gg\	-rō	8gg\	-tro-
.	.	.	.	.	2cc#X\	tran-	[4.cc#X\	-ci-
!LO:N:vis=8	!	!	!	!	!	!	!	!
4E-X\	4e-X\	8r	4cc#X\	.	.	.	.	.
.	.	8g/	.	.	.	.	8cc#\]	-ni-
=56	=56	=56	=56	=56	=56	=56	=56	=56
!	!	!LO:N:vis=2	!	!	!	!	!	!
2D\	2d\	2.f#X/	2.dd\	.	2dd\	-sfert	2dd,<\	-um
4r	4r	.	.	.	8r	.	8dd\	Spe-
.	.	.	.	.	(8dd\	ger-	4gg\	-ra-
!LO:N:vis=8	!LO:N:vis=8	!	!	!	!	!	!	!
4E-X\	4e-X\	8r	8r	.	8gg\)	.	.	.
.	.	8g/	8cc#X\	.	8cc#X\	-mi-	8cc#X\	.
=57	=57	=57	=57	=57	=57	=57	=57	=57
!	!	!	!	!	!LO:SIC:v:s=(4cc#\	!	!	!
2D\	2d\	2f#X/	2dd\	.	(4cc\	-ne:.	(4cc#X\	.
.	.	.	.	.	2dd\)	.	2dd\)	-te
!LO:TX:b:i:t=Aria Da Capo	!LO:TX:b:i:t=Da Capo	!LO:TX:b:i:t=Da\ncapo	!LO:TX:b:i:t=Aria Da\nCapo	!	!	!	!	!
2r	2r	2ryy	2r	.	.	.	.	.
!	!	!	!	!	!	!	!LO:TX:b:i:t=Da Capo	!
.	.	.	.	.	4r	.	4r	.
==	==	==	==	==	==	==	==	==
*-	*-	*-	*-	*-	*-	*-	*-	*-
!!!system-decoration: s1,s2[(s3,s4,s5,s6)]
!!!RDF**kern: > = above
!!!RDF**kern: < = below
!!!RDF**kern: | = vertical stroke
!!!RDF**dynam: p = "p:"
!!!RDF**dynam: f = "f:"
!!!ENC: Mateusz Solarz
!!!END: 2020-10-06
!!!ENC: Andrzej Kubiczek
!!!END: 2022-01-27
